X:13
T:Steyrer Tanz in F, nr. 22
C:traditionell
R:Steirer
A:Hallstatt, Salzkammergut
B:Corpus Musicae Popularis Austriacae (COMPA), 5.Band: J.M.Schmalnauer " Tanz Musik", Verlag Boehlau, Wien 1996
S:manuscript des Johann Michael Schmalnauer um 1820
N:im der quelle in F
N:um1800
M:3/4
L:1/8
K:F
V:1
A,FCFA,F | G,E C2 G,E | CB,G,ECE | "'"F(cAFCB,) |\
A,FCFA,F | G,E C2 G,E | CB,G,ECE | F4 :|
V:2
FcAcFc | EC TG2 Ec | BG EcBG | AfcBAG |\
FcAcFc | EC TG2 Ec | BG EcBG | A4 :|
